docs/images/templates/open-in-coder.svg

<svg width="206" height="47" viewBox="0 0 206 47" fill="none" xmlns="http://www.w3.org/2000/svg">
<rect width="206" height="47" rx="8" fill="url(#paint0_linear_2035_1022)"/>
<path d="M78.7045 23.1818C78.7045 24.4508 78.464 25.5303 77.983 26.4205C77.5057 27.3106 76.8542 27.9905 76.0284 28.4602C75.2064 28.9261 74.2822 29.1591 73.2557 29.1591C72.2216 29.1591 71.2936 28.9242 70.4716 28.4545C69.6496 27.9848 69 27.3049 68.5227 26.4148C68.0455 25.5246 67.8068 24.447 67.8068 23.1818C67.8068 21.9129 68.0455 20.8333 68.5227 19.9432C69 19.053 69.6496 18.375 70.4716 17.9091C71.2936 17.4394 72.2216 17.2045 73.2557 17.2045C74.2822 17.2045 75.2064 17.4394 76.0284 17.9091C76.8542 18.375 77.5057 19.053 77.983 19.9432C78.464 20.8333 78.7045 21.9129 78.7045 23.1818ZM76.2102 23.1818C76.2102 22.3598 76.0871 21.6667 75.8409 21.1023C75.5985 20.5379 75.2557 20.1098 74.8125 19.8182C74.3693 19.5265 73.8504 19.3807 73.2557 19.3807C72.661 19.3807 72.142 19.5265 71.6989 19.8182C71.2557 20.1098 70.911 20.5379 70.6648 21.1023C70.4223 21.6667 70.3011 22.3598 70.3011 23.1818C70.3011 24.0038 70.4223 24.697 70.6648 25.2614C70.911 25.8258 71.2557 26.2538 71.6989 26.5455C72.142 26.8371 72.661 26.983 73.2557 26.983C73.8504 26.983 74.3693 26.8371 74.8125 26.5455C75.2557 26.2538 75.5985 25.8258 75.8409 25.2614C76.0871 24.697 76.2102 24.0038 76.2102 23.1818ZM80.4815 32.2727V20.2727H82.8679V21.7386H82.9759C83.0819 21.5038 83.2353 21.2652 83.4361 21.0227C83.6406 20.7765 83.9058 20.572 84.2315 20.4091C84.5611 20.2424 84.9702 20.1591 85.4588 20.1591C86.0952 20.1591 86.6823 20.3258 87.2202 20.6591C87.758 20.9886 88.188 21.4867 88.5099 22.1534C88.8319 22.8163 88.9929 23.6477 88.9929 24.6477C88.9929 25.6212 88.8357 26.4432 88.5213 27.1136C88.2107 27.7803 87.7865 28.286 87.2486 28.6307C86.7145 28.9716 86.116 29.142 85.4531 29.142C84.9834 29.142 84.5838 29.0644 84.2543 28.9091C83.9285 28.7538 83.6615 28.5587 83.4531 28.3239C83.2448 28.0852 83.0857 27.8447 82.9759 27.6023H82.902V32.2727H80.4815ZM82.8509 24.6364C82.8509 25.1553 82.9228 25.608 83.0668 25.9943C83.2107 26.3807 83.419 26.6818 83.6918 26.8977C83.9645 27.1098 84.2959 27.2159 84.6861 27.2159C85.08 27.2159 85.4134 27.108 85.6861 26.892C85.9588 26.6723 86.1652 26.3693 86.3054 25.983C86.4493 25.5928 86.5213 25.1439 86.5213 24.6364C86.5213 24.1326 86.4512 23.6894 86.3111 23.3068C86.1709 22.9242 85.9645 22.625 85.6918 22.4091C85.419 22.1932 85.0838 22.0852 84.6861 22.0852C84.2921 22.0852 83.9588 22.1894 83.6861 22.3977C83.4171 22.6061 83.2107 22.9015 83.0668 23.2841C82.9228 23.6667 82.8509 24.1174 82.8509 24.6364ZM94.5838 29.1705C93.6861 29.1705 92.9134 28.9886 92.2656 28.625C91.6217 28.2576 91.1255 27.7386 90.777 27.0682C90.4285 26.3939 90.2543 25.5966 90.2543 24.6761C90.2543 23.7784 90.4285 22.9905 90.777 22.3125C91.1255 21.6345 91.616 21.1061 92.2486 20.7273C92.8849 20.3485 93.6312 20.1591 94.4872 20.1591C95.063 20.1591 95.599 20.2519 96.0952 20.4375C96.5952 20.6193 97.0308 20.8939 97.402 21.2614C97.777 21.6288 98.0687 22.0909 98.277 22.6477C98.4853 23.2008 98.5895 23.8485 98.5895 24.5909V25.2557H91.2202V23.7557H96.3111C96.3111 23.4072 96.2353 23.0985 96.0838 22.8295C95.9323 22.5606 95.7221 22.3504 95.4531 22.1989C95.188 22.0436 94.8793 21.9659 94.527 21.9659C94.1596 21.9659 93.8338 22.0511 93.5497 22.2216C93.2694 22.3883 93.0497 22.6136 92.8906 22.8977C92.7315 23.178 92.6501 23.4905 92.6463 23.8352V25.2614C92.6463 25.6932 92.7259 26.0663 92.8849 26.3807C93.0478 26.6951 93.277 26.9375 93.5724 27.108C93.8679 27.2784 94.2183 27.3636 94.6236 27.3636C94.8925 27.3636 95.1387 27.3258 95.3622 27.25C95.5857 27.1742 95.777 27.0606 95.9361 26.9091C96.0952 26.7576 96.2164 26.572 96.2997 26.3523L98.5384 26.5C98.4247 27.0379 98.1918 27.5076 97.8395 27.9091C97.491 28.3068 97.0402 28.6174 96.4872 28.8409C95.938 29.0606 95.3035 29.1705 94.5838 29.1705ZM102.589 23.9545V29H100.169V20.2727H102.476V21.8125H102.578C102.771 21.3049 103.095 20.9034 103.55 20.608C104.004 20.3087 104.555 20.1591 105.203 20.1591C105.809 20.1591 106.338 20.2917 106.788 20.5568C107.239 20.822 107.589 21.2008 107.839 21.6932C108.089 22.1818 108.214 22.7652 108.214 23.4432V29H105.794V23.875C105.798 23.3409 105.661 22.9242 105.385 22.625C105.108 22.322 104.728 22.1705 104.243 22.1705C103.917 22.1705 103.629 22.2405 103.379 22.3807C103.133 22.5208 102.94 22.7254 102.8 22.9943C102.663 23.2595 102.593 23.5795 102.589 23.9545ZM113.825 29V20.2727H116.246V29H113.825ZM115.041 19.1477C114.681 19.1477 114.373 19.0284 114.115 18.7898C113.861 18.5473 113.734 18.2576 113.734 17.9205C113.734 17.5871 113.861 17.3011 114.115 17.0625C114.373 16.8201 114.681 16.6989 115.041 16.6989C115.401 16.6989 115.708 16.8201 115.962 17.0625C116.219 17.3011 116.348 17.5871 116.348 17.9205C116.348 18.2576 116.219 18.5473 115.962 18.7898C115.708 19.0284 115.401 19.1477 115.041 19.1477ZM120.605 23.9545V29H118.185V20.2727H120.491V21.8125H120.594C120.787 21.3049 121.111 20.9034 121.565 20.608C122.02 20.3087 122.571 20.1591 123.219 20.1591C123.825 20.1591 124.353 20.2917 124.804 20.5568C125.255 20.822 125.605 21.2008 125.855 21.6932C126.105 22.1818 126.23 22.7652 126.23 23.4432V29H123.81V23.875C123.813 23.3409 123.677 22.9242 123.401 22.625C123.124 22.322 122.743 22.1705 122.259 22.1705C121.933 22.1705 121.645 22.2405 121.395 22.3807C121.149 22.5208 120.955 22.7254 120.815 22.9943C120.679 23.2595 120.609 23.5795 120.605 23.9545ZM142.153 21.4375H139.665C139.619 21.1155 139.527 20.8295 139.386 20.5795C139.246 20.3258 139.066 20.1098 138.847 19.9318C138.627 19.7538 138.373 19.6174 138.085 19.5227C137.801 19.428 137.492 19.3807 137.159 19.3807C136.557 19.3807 136.032 19.5303 135.585 19.8295C135.138 20.125 134.792 20.5568 134.545 21.125C134.299 21.6894 134.176 22.375 134.176 23.1818C134.176 24.0114 134.299 24.7083 134.545 25.2727C134.795 25.8371 135.144 26.2633 135.591 26.5511C136.038 26.839 136.555 26.983 137.142 26.983C137.472 26.983 137.777 26.9394 138.057 26.8523C138.341 26.7652 138.593 26.6383 138.812 26.4716C139.032 26.3011 139.214 26.0947 139.358 25.8523C139.506 25.6098 139.608 25.3333 139.665 25.0227L142.153 25.0341C142.089 25.5682 141.928 26.0833 141.67 26.5795C141.417 27.072 141.074 27.5133 140.642 27.9034C140.214 28.2898 139.703 28.5966 139.108 28.8239C138.517 29.0473 137.848 29.1591 137.102 29.1591C136.064 29.1591 135.136 28.9242 134.318 28.4545C133.504 27.9848 132.86 27.3049 132.386 26.4148C131.917 25.5246 131.682 24.447 131.682 23.1818C131.682 21.9129 131.92 20.8333 132.398 19.9432C132.875 19.053 133.523 18.375 134.341 17.9091C135.159 17.4394 136.08 17.2045 137.102 17.2045C137.777 17.2045 138.402 17.2992 138.977 17.4886C139.557 17.678 140.07 17.9545 140.517 18.3182C140.964 18.678 141.328 19.1193 141.608 19.642C141.892 20.1648 142.074 20.7633 142.153 21.4375ZM147.815 29.1705C146.933 29.1705 146.17 28.983 145.526 28.608C144.885 28.2292 144.391 27.7027 144.043 27.0284C143.694 26.3504 143.52 25.5644 143.52 24.6705C143.52 23.7689 143.694 22.9811 144.043 22.3068C144.391 21.6288 144.885 21.1023 145.526 20.7273C146.17 20.3485 146.933 20.1591 147.815 20.1591C148.698 20.1591 149.459 20.3485 150.099 20.7273C150.743 21.1023 151.24 21.6288 151.588 22.3068C151.937 22.9811 152.111 23.7689 152.111 24.6705C152.111 25.5644 151.937 26.3504 151.588 27.0284C151.24 27.7027 150.743 28.2292 150.099 28.608C149.459 28.983 148.698 29.1705 147.815 29.1705ZM147.827 27.2955C148.228 27.2955 148.563 27.1818 148.832 26.9545C149.101 26.7235 149.304 26.4091 149.44 26.0114C149.58 25.6136 149.651 25.161 149.651 24.6534C149.651 24.1458 149.58 23.6932 149.44 23.2955C149.304 22.8977 149.101 22.5833 148.832 22.3523C148.563 22.1212 148.228 22.0057 147.827 22.0057C147.421 22.0057 147.08 22.1212 146.804 22.3523C146.531 22.5833 146.325 22.8977 146.185 23.2955C146.048 23.6932 145.98 24.1458 145.98 24.6534C145.98 25.161 146.048 25.6136 146.185 26.0114C146.325 26.4091 146.531 26.7235 146.804 26.9545C147.08 27.1818 147.421 27.2955 147.827 27.2955ZM156.901 29.142C156.238 29.142 155.637 28.9716 155.099 28.6307C154.565 28.286 154.141 27.7803 153.827 27.1136C153.516 26.4432 153.361 25.6212 153.361 24.6477C153.361 23.6477 153.522 22.8163 153.844 22.1534C154.166 21.4867 154.594 20.9886 155.128 20.6591C155.666 20.3258 156.255 20.1591 156.895 20.1591C157.384 20.1591 157.791 20.2424 158.116 20.4091C158.446 20.572 158.711 20.7765 158.912 21.0227C159.116 21.2652 159.272 21.5038 159.378 21.7386H159.452V17.3636H161.866V29H159.48V27.6023H159.378C159.264 27.8447 159.103 28.0852 158.895 28.3239C158.69 28.5587 158.423 28.7538 158.094 28.9091C157.768 29.0644 157.37 29.142 156.901 29.142ZM157.668 27.2159C158.058 27.2159 158.387 27.1098 158.656 26.8977C158.929 26.6818 159.137 26.3807 159.281 25.9943C159.429 25.608 159.503 25.1553 159.503 24.6364C159.503 24.1174 159.431 23.6667 159.287 23.2841C159.143 22.9015 158.935 22.6061 158.662 22.3977C158.389 22.1894 158.058 22.0852 157.668 22.0852C157.27 22.0852 156.935 22.1932 156.662 22.4091C156.389 22.625 156.183 22.9242 156.043 23.3068C155.902 23.6894 155.832 24.1326 155.832 24.6364C155.832 25.1439 155.902 25.5928 156.043 25.983C156.187 26.3693 156.393 26.6723 156.662 26.892C156.935 27.108 157.27 27.2159 157.668 27.2159ZM167.834 29.1705C166.936 29.1705 166.163 28.9886 165.516 28.625C164.872 28.2576 164.375 27.7386 164.027 27.0682C163.679 26.3939 163.504 25.5966 163.504 24.6761C163.504 23.7784 163.679 22.9905 164.027 22.3125C164.375 21.6345 164.866 21.1061 165.499 20.7273C166.135 20.3485 166.881 20.1591 167.737 20.1591C168.313 20.1591 168.849 20.2519 169.345 20.4375C169.845 20.6193 170.281 20.8939 170.652 21.2614C171.027 21.6288 171.319 22.0909 171.527 22.6477C171.735 23.2008 171.839 23.8485 171.839 24.5909V25.2557H164.47V23.7557H169.561C169.561 23.4072 169.485 23.0985 169.334 22.8295C169.182 22.5606 168.972 22.3504 168.703 22.1989C168.438 22.0436 168.129 21.9659 167.777 21.9659C167.41 21.9659 167.084 22.0511 166.8 22.2216C166.519 22.3883 166.3 22.6136 166.141 22.8977C165.982 23.178 165.9 23.4905 165.896 23.8352V25.2614C165.896 25.6932 165.976 26.0663 166.135 26.3807C166.298 26.6951 166.527 26.9375 166.822 27.108C167.118 27.2784 167.468 27.3636 167.874 27.3636C168.143 27.3636 168.389 27.3258 168.612 27.25C168.836 27.1742 169.027 27.0606 169.186 26.9091C169.345 26.7576 169.466 26.572 169.55 26.3523L171.788 26.5C171.675 27.0379 171.442 27.5076 171.089 27.9091C170.741 28.3068 170.29 28.6174 169.737 28.8409C169.188 29.0606 168.554 29.1705 167.834 29.1705ZM173.419 29V20.2727H175.766V21.7955H175.857C176.016 21.2538 176.283 20.8447 176.658 20.5682C177.033 20.2879 177.464 20.1477 177.953 20.1477C178.074 20.1477 178.205 20.1553 178.345 20.1705C178.485 20.1856 178.608 20.2064 178.714 20.233V22.3807C178.601 22.3466 178.444 22.3163 178.243 22.2898C178.042 22.2633 177.858 22.25 177.692 22.25C177.336 22.25 177.018 22.3277 176.737 22.483C176.461 22.6345 176.241 22.8466 176.078 23.1193C175.919 23.392 175.839 23.7064 175.839 24.0625V29H173.419Z" fill="white"/>
<path d="M53.3236 22.6897C52.7656 22.6897 52.3937 22.3621 52.3937 21.6897V17.8276C52.3937 15.3621 51.3791 14 48.7583 14H47.5409V16.6034H47.9129C48.9443 16.6034 49.4346 17.1724 49.4346 18.1896V21.6035C49.4346 23.0862 49.8742 23.6897 50.8381 24C49.8742 24.2931 49.4346 24.9138 49.4346 26.3965C49.4346 27.2414 49.4346 28.0862 49.4346 28.9311C49.4346 29.6379 49.4346 30.3276 49.2486 31.0345C49.0627 31.6897 48.7583 32.3103 48.3356 32.8448C48.0989 33.1552 47.8283 33.4138 47.524 33.6552V34H48.7414C51.3622 34 52.3768 32.6379 52.3768 30.1724V26.3103C52.3768 25.6207 52.7317 25.3103 53.3067 25.3103H54V22.7069H53.3236V22.6897Z" fill="white"/>
<path d="M45.0387 17.9316H41.285C41.2004 17.9316 41.1328 17.8627 41.1328 17.7765V17.4834C41.1328 17.3972 41.2004 17.3282 41.285 17.3282H45.0556C45.1401 17.3282 45.2078 17.3972 45.2078 17.4834V17.7765C45.2078 17.8627 45.1232 17.9316 45.0387 17.9316Z" fill="white"/>
<path d="M45.6811 21.6556H42.9419C42.8574 21.6556 42.7897 21.5866 42.7897 21.5004V21.2073C42.7897 21.1212 42.8574 21.0522 42.9419 21.0522H45.6811C45.7656 21.0522 45.8332 21.1212 45.8332 21.2073V21.5004C45.8332 21.5694 45.7656 21.6556 45.6811 21.6556Z" fill="white"/>
<path d="M46.7633 19.7936H41.285C41.2004 19.7936 41.1328 19.7247 41.1328 19.6385V19.3453C41.1328 19.2591 41.2004 19.1902 41.285 19.1902H46.7464C46.831 19.1902 46.8986 19.2591 46.8986 19.3453V19.6385C46.8986 19.7074 46.8479 19.7936 46.7633 19.7936Z" fill="white"/>
<path d="M36.9393 18.7759C37.3113 18.7759 37.6833 18.8104 38.0384 18.8966V18.1896C38.0384 17.1896 38.5456 16.6034 39.5602 16.6034H39.9322V14H38.7147C36.0938 14 35.0794 15.3621 35.0794 17.8276V19.1034C35.6711 18.8966 36.2968 18.7759 36.9393 18.7759Z" fill="white"/>
<path d="M47.9136 28.1548C47.643 25.9651 45.9859 24.1375 43.8555 23.7237C43.2637 23.6031 42.6718 23.5858 42.097 23.6893C42.0801 23.6893 42.0801 23.672 42.0632 23.672C41.1332 21.6893 39.138 20.3789 36.9737 20.3789C34.8094 20.3789 32.8311 21.6548 31.8842 23.6375C31.8673 23.6375 31.8673 23.6548 31.8504 23.6548C31.2417 23.5858 30.633 23.6203 30.0242 23.7755C27.9276 24.2927 26.3382 26.0858 26.0507 28.2582C26.0169 28.4823 26 28.7065 26 28.9134C26 29.5685 26.4396 30.172 27.0821 30.2582C27.8769 30.3789 28.5701 29.7582 28.5532 28.9651C28.5532 28.8444 28.5532 28.7065 28.5701 28.5858C28.7054 27.4823 29.5339 26.5513 30.616 26.2927C30.9542 26.2065 31.2924 26.1893 31.6137 26.241C32.6451 26.3789 33.6596 25.8444 34.0992 24.9134C34.4205 24.2237 34.9278 23.6203 35.6041 23.2927C36.348 22.9306 37.1935 22.8789 37.9713 23.1548C38.7829 23.4479 39.3916 24.0685 39.7636 24.8444C40.1525 25.6031 40.3385 26.1375 41.167 26.241C41.5052 26.2927 42.4521 26.2755 42.8071 26.2582C43.5004 26.2582 44.1937 26.4996 44.684 26.9996C45.0052 27.3444 45.242 27.7755 45.3434 28.2582C45.4956 29.0341 45.3096 29.8099 44.8531 30.3961C44.5318 30.8099 44.0922 31.1203 43.6018 31.2582C43.3651 31.3272 43.1284 31.3444 42.8917 31.3444C42.7564 31.3444 42.5704 31.3444 42.3506 31.3444C41.6743 31.3444 40.237 31.3444 39.1549 31.3444C38.4109 31.3444 37.8191 30.741 37.8191 29.9823V24.9306C37.8191 24.7237 37.65 24.5513 37.4471 24.5513H36.9229C35.8915 24.5685 35.063 25.741 35.063 26.9823C35.063 28.2237 35.063 31.5169 35.063 31.5169C35.063 32.8617 36.1282 33.9479 37.4471 33.9479C37.4471 33.9479 43.3144 33.9306 43.3989 33.9306C44.7516 33.7927 46.0029 33.0858 46.8483 31.9996C47.6937 30.9479 48.0826 29.5685 47.9136 28.1548Z" fill="white"/>
<defs>
<linearGradient id="paint0_linear_2035_1022" x1="0" y1="0" x2="203.68" y2="63.0418" gradientUnits="userSpaceOnUse">
<stop stop-color="#8635F7"/>
<stop offset="1" stop-color="#4356FF"/>
</linearGradient>
</defs>
</svg>

<svg xmlns="http://www.w3.org/2000/svg" width="206" height="47" fill="none" viewBox="0 0 206 47">
  <rect width="206" height="47" fill="url(#a)" rx="8"/>
  <path fill="#fff" d="M78.704 23.182c0 1.269-.24 2.348-.721 3.239-.477.89-1.129 1.57-1.955 2.04-.822.465-1.746.698-2.772.698-1.034 0-1.962-.235-2.784-.704-.822-.47-1.472-1.15-1.95-2.04-.477-.89-.715-1.968-.715-3.233 0-1.27.239-2.349.716-3.239.477-.89 1.127-1.568 1.949-2.034.822-.47 1.75-.704 2.784-.704 1.026 0 1.95.234 2.772.704.826.466 1.478 1.144 1.955 2.034.481.89.721 1.97.721 3.239Zm-2.494 0c0-.822-.123-1.515-.37-2.08-.242-.564-.584-.992-1.028-1.284-.443-.292-.962-.437-1.556-.437-.595 0-1.114.145-1.557.437-.443.292-.788.72-1.034 1.284-.243.565-.364 1.258-.364 2.08 0 .822.121 1.515.364 2.08.246.564.59.992 1.034 1.284.443.291.962.437 1.557.437.594 0 1.113-.146 1.556-.438.444-.291.787-.72 1.029-1.284.246-.564.37-1.257.37-2.08Zm4.272 9.09v-12h2.386v1.467h.108a3.2 3.2 0 0 1 .46-.716 2.43 2.43 0 0 1 .795-.614c.33-.167.74-.25 1.228-.25a3.28 3.28 0 0 1 1.761.5c.538.33.968.828 1.29 1.494.322.663.483 1.495.483 2.495 0 .973-.157 1.795-.472 2.466-.31.666-.734 1.172-1.272 1.517a3.267 3.267 0 0 1-1.796.511c-.47 0-.87-.078-1.199-.233a2.48 2.48 0 0 1-.8-.585 2.973 2.973 0 0 1-.478-.722h-.074v4.67h-2.42Zm2.369-7.636c0 .52.072.972.216 1.358.144.387.352.688.625.904.273.212.604.318.994.318.394 0 .727-.108 1-.324.273-.22.48-.523.62-.909.143-.39.215-.84.215-1.347 0-.503-.07-.947-.21-1.33-.14-.382-.347-.681-.62-.897-.272-.216-.607-.324-1.005-.324-.394 0-.727.104-1 .313-.269.208-.475.503-.62.886-.143.383-.215.833-.215 1.352Zm11.733 4.535c-.898 0-1.67-.182-2.318-.546a3.736 3.736 0 0 1-1.489-1.557c-.349-.674-.523-1.471-.523-2.392 0-.898.174-1.685.523-2.363a3.864 3.864 0 0 1 1.472-1.586c.636-.378 1.382-.568 2.238-.568.576 0 1.112.093 1.608.279.5.181.936.456 1.307.823.375.368.667.83.875 1.387.208.553.313 1.2.313 1.943v.665h-7.37v-1.5h5.091c0-.349-.076-.657-.227-.927a1.627 1.627 0 0 0-.63-.63 1.798 1.798 0 0 0-.927-.233c-.367 0-.693.085-.977.256a1.8 1.8 0 0 0-.66.676c-.159.28-.24.593-.244.937v1.426c0 .432.08.805.239 1.12.163.314.392.556.687.727.296.17.646.256 1.052.256.269 0 .515-.038.738-.114a1.55 1.55 0 0 0 .574-.34c.16-.152.28-.338.364-.558l2.238.148a3.057 3.057 0 0 1-.698 1.41c-.349.397-.8.707-1.353.93-.549.22-1.183.33-1.903.33Zm8.005-5.216V29h-2.42v-8.727h2.307v1.54h.102a2.43 2.43 0 0 1 .972-1.205c.454-.3 1.005-.449 1.653-.449.606 0 1.135.133 1.585.398.451.265.801.644 1.051 1.136.25.489.375 1.072.375 1.75V29h-2.42v-5.125c.004-.534-.133-.95-.409-1.25-.277-.303-.657-.454-1.142-.454-.326 0-.614.07-.864.21-.246.14-.439.344-.579.613-.137.265-.207.585-.211.96ZM113.825 29v-8.727h2.421V29h-2.421Zm1.216-9.852c-.36 0-.668-.12-.926-.358a1.16 1.16 0 0 1-.381-.87c0-.333.127-.619.381-.858.258-.242.566-.363.926-.363.36 0 .667.121.921.363.257.24.386.525.386.858 0 .338-.129.627-.386.87a1.297 1.297 0 0 1-.921.358Zm5.564 4.806V29h-2.42v-8.727h2.306v1.54h.103c.193-.508.517-.91.971-1.205.455-.3 1.006-.449 1.654-.449.606 0 1.134.133 1.585.398.451.265.801.644 1.051 1.136.25.489.375 1.072.375 1.75V29h-2.42v-5.125c.003-.534-.133-.95-.409-1.25-.277-.303-.658-.454-1.142-.454-.326 0-.614.07-.864.21-.246.14-.44.344-.58.613-.136.265-.206.585-.21.96Zm21.548-2.517h-2.488a2.428 2.428 0 0 0-.279-.858c-.14-.253-.32-.47-.539-.647a2.381 2.381 0 0 0-.762-.41 2.912 2.912 0 0 0-.926-.141c-.602 0-1.127.15-1.574.448-.447.296-.793.728-1.04 1.296-.246.564-.369 1.25-.369 2.057 0 .83.123 1.526.369 2.09.25.565.599.991 1.046 1.28.447.287.964.431 1.551.431.33 0 .635-.044.915-.13.284-.088.536-.215.755-.381.22-.17.402-.377.546-.62.148-.242.25-.519.307-.83l2.488.012a4.484 4.484 0 0 1-.483 1.546 4.624 4.624 0 0 1-1.028 1.323 4.837 4.837 0 0 1-1.534.92c-.591.224-1.26.336-2.006.336-1.038 0-1.966-.235-2.784-.704-.814-.47-1.458-1.15-1.932-2.04-.469-.89-.704-1.968-.704-3.233 0-1.27.238-2.349.716-3.239.477-.89 1.125-1.568 1.943-2.034.818-.47 1.739-.704 2.761-.704.675 0 1.3.094 1.875.284a4.75 4.75 0 0 1 1.54.83c.447.359.811.8 1.091 1.323.284.523.466 1.121.545 1.796Zm5.662 7.733c-.882 0-1.645-.187-2.289-.562a3.84 3.84 0 0 1-1.483-1.58c-.349-.678-.523-1.464-.523-2.357 0-.902.174-1.69.523-2.364a3.795 3.795 0 0 1 1.483-1.58c.644-.378 1.407-.568 2.289-.568.883 0 1.644.19 2.284.568a3.79 3.79 0 0 1 1.489 1.58c.349.674.523 1.462.523 2.364 0 .893-.174 1.68-.523 2.357a3.835 3.835 0 0 1-1.489 1.58c-.64.375-1.401.563-2.284.563Zm.012-1.875c.401 0 .736-.113 1.005-.34.269-.231.472-.546.608-.944.14-.397.211-.85.211-1.358 0-.507-.071-.96-.211-1.357-.136-.398-.339-.713-.608-.944-.269-.23-.604-.346-1.005-.346-.406 0-.747.115-1.023.346-.273.231-.479.546-.619.944-.137.397-.205.85-.205 1.357 0 .508.068.96.205 1.358.14.398.346.713.619.944.276.227.617.34 1.023.34Zm9.074 1.847c-.663 0-1.264-.17-1.802-.511-.534-.345-.958-.85-1.272-1.517-.311-.67-.466-1.493-.466-2.466 0-1 .161-1.832.483-2.495.322-.666.75-1.164 1.284-1.494a3.291 3.291 0 0 1 1.767-.5c.489 0 .896.083 1.221.25.33.163.595.367.796.614.204.242.36.48.466.716h.074v-4.375h2.414V29h-2.386v-1.398h-.102a3.144 3.144 0 0 1-.483.722 2.41 2.41 0 0 1-.801.585c-.326.155-.724.233-1.193.233Zm.767-1.926c.39 0 .719-.106.988-.318.273-.216.481-.517.625-.904.148-.386.222-.839.222-1.358 0-.519-.072-.97-.216-1.352-.144-.383-.352-.678-.625-.886-.273-.209-.604-.313-.994-.313-.398 0-.733.108-1.006.324-.273.216-.479.515-.619.898-.141.382-.211.826-.211 1.33 0 .507.07.956.211 1.346.144.386.35.69.619.909.273.216.608.324 1.006.324Zm10.166 1.954c-.898 0-1.671-.181-2.318-.545a3.733 3.733 0 0 1-1.489-1.557c-.348-.674-.523-1.471-.523-2.392 0-.898.175-1.685.523-2.363a3.86 3.86 0 0 1 1.472-1.586c.636-.378 1.382-.568 2.238-.568.576 0 1.112.093 1.608.279.5.181.936.456 1.307.823.375.368.667.83.875 1.387.208.553.312 1.2.312 1.943v.665h-7.369v-1.5h5.091a1.86 1.86 0 0 0-.227-.927 1.632 1.632 0 0 0-.631-.63 1.799 1.799 0 0 0-.926-.233c-.367 0-.693.085-.977.256-.281.166-.5.392-.659.676-.159.28-.241.593-.245.937v1.426c0 .432.08.805.239 1.12.163.314.392.556.687.727.296.17.646.256 1.052.256.269 0 .515-.038.738-.114a1.53 1.53 0 0 0 .574-.34c.159-.152.28-.338.364-.558l2.238.148a3.044 3.044 0 0 1-.699 1.41c-.348.397-.799.707-1.352.93-.549.22-1.183.33-1.903.33Zm5.585-.17v-8.727h2.347v1.523h.091c.159-.542.426-.951.801-1.228.375-.28.806-.42 1.295-.42a3.65 3.65 0 0 1 .761.085v2.148a3.126 3.126 0 0 0-.471-.091 4.249 4.249 0 0 0-.551-.04 1.94 1.94 0 0 0-.955.233 1.72 1.72 0 0 0-.659.636 1.838 1.838 0 0 0-.239.944V29h-2.42ZM53.324 22.69c-.558 0-.93-.328-.93-1v-3.862c0-2.466-1.015-3.828-3.636-3.828h-1.217v2.603h.372c1.031 0 1.522.57 1.522 1.587v3.413c0 1.483.44 2.087 1.403 2.397-.964.293-1.403.914-1.403 2.396v2.535c0 .707 0 1.397-.186 2.104a5.205 5.205 0 0 1-.913 1.81c-.237.31-.508.569-.812.81V34h1.217c2.621 0 3.636-1.362 3.636-3.828V26.31c0-.69.355-1 .93-1H54v-2.603h-.676v-.017Zm-8.285-4.758h-3.754a.153.153 0 0 1-.152-.155v-.294c0-.086.067-.155.152-.155h3.77c.085 0 .153.07.153.155v.293c0 .087-.085.156-.17.156Zm.642 3.724h-2.74a.153.153 0 0 1-.151-.156v-.293c0-.086.067-.155.152-.155h2.74c.084 0 .151.07.151.155v.293c0 .07-.067.156-.152.156Zm1.082-1.862h-5.478a.153.153 0 0 1-.152-.155v-.294c0-.086.067-.155.152-.155h5.461c.085 0 .153.07.153.155v.294c0 .068-.051.155-.136.155Zm-9.823-1.018c.371 0 .743.034 1.098.12v-.706c0-1 .508-1.587 1.522-1.587h.372V14h-1.217c-2.621 0-3.636 1.362-3.636 3.828v1.275a5.635 5.635 0 0 1 1.86-.327Z"/>
  <path fill="#fff" d="M47.914 28.155c-.271-2.19-1.928-4.018-4.059-4.431a4.65 4.65 0 0 0-1.758-.035c-.017 0-.017-.017-.034-.017-.93-1.983-2.925-3.293-5.09-3.293-2.164 0-4.142 1.276-5.089 3.258-.017 0-.017.018-.034.018a5.033 5.033 0 0 0-1.826.12c-2.096.518-3.686 2.31-3.973 4.483a4.45 4.45 0 0 0-.051.655c0 .655.44 1.259 1.082 1.345.795.12 1.488-.5 1.471-1.293 0-.12 0-.259.017-.38a2.719 2.719 0 0 1 2.046-2.292c.338-.087.676-.104.998-.052 1.031.138 2.046-.397 2.485-1.328.322-.69.829-1.293 1.505-1.62a3.053 3.053 0 0 1 2.367-.138c.812.293 1.42.913 1.793 1.69.389.758.575 1.293 1.403 1.396.338.052 1.285.035 1.64.017.693 0 1.387.242 1.877.742.321.344.558.776.66 1.258a2.641 2.641 0 0 1-.49 2.138 2.448 2.448 0 0 1-1.252.862 2.503 2.503 0 0 1-.71.086h-3.737a1.341 1.341 0 0 1-1.336-1.362v-5.051a.38.38 0 0 0-.372-.38h-.524c-1.032.018-1.86 1.19-1.86 2.431v4.535c0 1.345 1.065 2.43 2.384 2.43l5.952-.016A5.046 5.046 0 0 0 46.849 32c.845-1.052 1.234-2.431 1.065-3.845Z"/>
  <defs>
    <linearGradient id="a" x1="0" x2="203.68" y1="0" y2="63.042" gradientUnits="userSpaceOnUse">
      <stop stop-color="#8635F7"/>
      <stop offset="1" stop-color="#4356FF"/>
    </linearGradient>
  </defs>
</svg>
